X: 26723
T: Mike Saunders'
R: jig
M: 6/8
K: Dmajor
|:(3F/G/A/|fge fdB|AdB AFD|[A,A][B,D]D [A,A][B,D][DG]|FE^D EF/G/A|
fge f2 d|AdB AF/E/D|[A,A][B,d][DB] FGE|FDD D2:|
|:f/g/|afd bge|afd gec|dAG FDE|FE^D Ee/f/g|
afd b2 g|afd g2 A|1 dcd ABG|FD/D/D D2:|2 d>cB AGF|ED/D/D D2||

